print_circle.svg

<svg height="200" viewBox="0 0 200 200" width="200" xmlns="http://www.w3.org/2000/svg"><path d="m100 0a100 100 0 1 0 99 114.35 47.64 47.64 0 0 0 .93-10.22c.06-1.37.1-2.74.1-4.13a100 100 0 0 0 -100.03-100zm52.17 87.5v37.66h-22.6v6.61l-17.06 17v.05h-42v-23.7h-22.68v-53.6h22.66v-20.36h59.08v20.37h22.61zm-89.79 30.4h8.1v-16.1h6.79v40.24h28.43v-17.04h17.07v-23.19h6.79v16.1h8.44v-24.66h-75.62zm14.9-60h45.5v13.63h-45.5zm54.52 20.83h13.13v6.68h-13.13z"/></svg>

<svg xmlns="http://www.w3.org/2000/svg" width="200" height="200" viewBox="0 0 200 200"><title>print_circle</title><path d="M100,0a100,100,0,1,0,99,114.35,47.64,47.64,0,0,0,.93-10.22c.06-1.37.1-2.74.1-4.13A100,100,0,0,0,100,0Zm52.17,87.5v37.66H129.57v6.61l-17.06,17v.05h-42v-23.7H47.83V71.52H70.49V51.16h59.08V71.53h22.61ZM62.38,117.9h8.1v-16.1h6.79v40.24H105.7V125h17.07V101.81h6.79v16.1H138V93.25H62.38Zm14.9-60h45.5V71.53H77.28ZM131.8,78.73h13.13v6.68H131.8Z"/></svg>
